icons/Arrow-Left-Square.svg

<svg width="24" height="24" viewBox="0 0 24 24" fill="none" xmlns="http://www.w3.org/2000/svg">
<g id="Arrow-Left-Square">
<path id="Vector" d="M7 21H17C19.2091 21 21 19.2091 21 17V7C21 4.79086 19.2091 3 17 3H7C4.79086 3 3 4.79086 3 7V17C3 19.2091 4.79086 21 7 21Z" stroke="#00153F" stroke-width="1.5" stroke-linecap="round" stroke-linejoin="round"/>
<path id="Vector_2" d="M7 12H17" stroke="#00153F" stroke-width="1.5" stroke-linecap="round" stroke-linejoin="round"/>
<path id="Vector_3" d="M10 15L7 12L10 9" stroke="#00153F" stroke-width="1.5" stroke-linecap="round" stroke-linejoin="round"/>
</g>
</svg>

<svg xmlns="http://www.w3.org/2000/svg" fill="none" viewBox="0 0 24 24"><g stroke="currentColor" stroke-linecap="round" stroke-linejoin="round" stroke-width="1.5"><path d="M7 21h10a4 4 0 0 0 4-4V7a4 4 0 0 0-4-4H7a4 4 0 0 0-4 4v10a4 4 0 0 0 4 4Zm0-9h10"/><path d="m10 15-3-3 3-3"/></g></svg>
